X:252
T:Packie Russell's
R:polka 32
C:Trad. ed. OSB
S:Swan For The Money
M:2/4
L:1/16
Q:1/4=90
K:G
|:G2zB d2G2|F6 d2|e2d2 d2c2|B2Bc B2A2|
G2zB d2G2|F6 d2|e2d2 e2f2|1g3e d2B2:|2g3e d2c2|]
|:B3B B2B2|A2BA G2Bd|g2gg f2e2|d6 B2|
cdcB A2c2|BcBA G2d2|e3d e2f2|1g3e d2c2:|2g3e d2B2|]

